!!!COM: Music21
!!!OTL: jig_Edgecombe
!!!OMV: jig_Edgecombe
**kern
*clefG2
*k[f#c#]
*M6/8
=1
8eL
8d
8eJ
8bL
8cc#
8ddJ
=
8eL
8b
8cc#J
8ddL
8ee
8cc#J
=
8eL
8d
8eJ
8bL
8cc#
8ddJ
=
8eeL
8ff#
8ggJ
8aaL
8gg
8aaJ
=
8eL
8d
8eJ
8bL
8cc#
8ddJ
=
8eL
8b
8cc#J
8ddL
8ee
8cc#J
!!linebreak:original
=
8ddL
8b
8ddJ
8eeL
8ff#
8ddJ
=
8eeL
8b
8gJ
4e
8d
=||
*M6/8
8eL
8d
8eJ
8bL
8cc#
8ddJ
=
8eL
8b
8cc#J
8ddL
8ee
8cc#J
=
8eL
8d
8eJ
8bL
8cc#
8ddJ
=
8eeL
8ff#
8ggJ
8aaL
8gg
8aaJ
!!linebreak:original
=
8eL
8d
8eJ
8bL
8cc#
8ddJ
=
8eL
8b
8cc#J
8ddL
8ee
8cc#J
=
8ddL
8b
8ddJ
8eeL
8ff#
8ddJ
=
8eeL
8b
8gJ
4e
8g
=||
8aL
8a
8eJ
8bL
8b
8eJ
=
8cc#L
8cc#
8eJ
8ddL
8dd
8eJ
!!linebreak:original
=
8eeL
8dd
8eeJ
8ff#L
8ee
8ff#J
=
8ggL
8ff#
8eeJ
4ff#
8g
=
8aL
8a
8eJ
8bL
8b
8eJ
=
8cc#L
8cc#
8eJ
8ddL
8dd
8eJ
=
8bL
8ee
8bJ
8aL
8cc#
8aJ
=
8bL
8g
8f#J
4e
8g
!!linebreak:original
=||
8aL
8a
8eJ
8bL
8b
8eJ
=
8cc#L
8cc#
8eJ
8ddL
8dd
8eJ
=
8eeL
8dd
8eeJ
8ff#L
8ee
8ff#J
=
8ggL
8ff#
8eeJ
4ff#
8g
=
8aL
8a
8eJ
8bL
8b
8eJ
=
8cc#L
8cc#
8eJ
8ddL
8dd
8eJ
!!linebreak:original
=
8bL
8ee
8bJ
8aL
8cc#
8aJ
=
8bL
8g
8f#J
4e
8d
=||
*-
